packages/kaspersky-hexa-ui-icons/src/iconsSVGs/24/Identity.svg

<svg width="24" height="24" viewBox="0 0 24 24" fill="none" xmlns="http://www.w3.org/2000/svg">
<path fill-rule="evenodd" clip-rule="evenodd" d="M9 3C9 2.44772 9.44772 2 10 2H14C14.5523 2 15 2.44772 15 3V6C15 7.65685 13.6569 9 12 9C10.3431 9 9 7.65685 9 6V3ZM11 6C11 6.55228 11.4477 7 12 7C12.5523 7 13 6.55228 13 6V4H11V6Z" fill="black"/>
<path d="M7 5H6C3.79086 5 2 6.79086 2 9V18C2 20.2091 3.79086 22 6 22H18C20.2091 22 22 20.2091 22 18V9C22 6.79086 20.2091 5 18 5H17V6C17 6.34247 16.9656 6.67689 16.9 7H18C19.1046 7 20 7.89543 20 9V18C20 19.1046 19.1046 20 18 20H6C4.89543 20 4 19.1046 4 18V9C4 7.89543 4.89543 7 6 7H7.10002C7.03443 6.67689 7 6.34247 7 6V5Z" fill="black"/>
<path fill-rule="evenodd" clip-rule="evenodd" d="M7 10C5.89543 10 5 10.8954 5 12V16C5 17.1046 5.89543 18 7 18H11C12.1046 18 13 17.1046 13 16V12C13 10.8954 12.1046 10 11 10H7ZM7 16V12H11V16H7Z" fill="black"/>
<path d="M15 11C14.4477 11 14 11.4477 14 12C14 12.5523 14.4477 13 15 13H18C18.5523 13 19 12.5523 19 12C19 11.4477 18.5523 11 18 11H15Z" fill="black"/>
<path d="M14 15C14 14.4477 14.4477 14 15 14H18C18.5523 14 19 14.4477 19 15C19 15.5523 18.5523 16 18 16H15C14.4477 16 14 15.5523 14 15Z" fill="black"/>
</svg>

<svg xmlns="http://www.w3.org/2000/svg" width="24" height="24" fill="none" viewBox="0 0 24 24"><path fill="#000" fill-rule="evenodd" d="M9 3c0-.5523.4477-1 1-1h4c.5523 0 1 .4477 1 1v3c0 1.6569-1.3431 3-3 3S9 7.6569 9 6zm2 3c0 .5523.4477 1 1 1s1-.4477 1-1V4h-2zM7 5H6C3.7909 5 2 6.7909 2 9v9c0 2.2091 1.7909 4 4 4h12c2.2091 0 4-1.7909 4-4V9c0-2.2091-1.7909-4-4-4h-1v1a5.02 5.02 0 0 1-.1 1H18c1.1046 0 2 .8954 2 2v9c0 1.1046-.8954 2-2 2H6c-1.1046 0-2-.8954-2-2V9c0-1.1046.8954-2 2-2h1.1A5.02 5.02 0 0 1 7 6zm0 5c-1.1046 0-2 .8954-2 2v4c0 1.1046.8954 2 2 2h4c1.1046 0 2-.8954 2-2v-4c0-1.1046-.8954-2-2-2zm7 2c0-.5523.4477-1 1-1h3c.5523 0 1 .4477 1 1s-.4477 1-1 1h-3c-.5523 0-1-.4477-1-1m-7 4v-4h4v4zm8-2c-.5523 0-1 .4477-1 1s.4477 1 1 1h3c.5523 0 1-.4477 1-1s-.4477-1-1-1z"/></svg>
